projects/flag-game/flags/Finland.svg

<svg viewBox="0 0 1000 611" xmlns="http://www.w3.org/2000/svg"><path d="m0 0h1000v611h-1000z" fill="#fff"/><g fill="#003580" fill-rule="evenodd"><path d="m0 222.222656h1000v166.667969h-1000zm0 0"/><path d="m277.777344 0h166.667968v611.109375h-166.667968zm0 0"/></g></svg>

<?xml version="1.0" encoding="UTF-8"?>
<svg xmlns="http://www.w3.org/2000/svg" xmlns:xlink="http://www.w3.org/1999/xlink" viewBox="0 0 1000 611" version="1.1">
<g id="surface440">
<rect x="0" y="0" width="1000" height="611" style="fill:rgb(99.998474%,99.998474%,99.998474%);fill-opacity:1;stroke:none;"/>
<path style=" stroke:none;fill-rule:evenodd;fill:rgb(0%,20.783997%,50.195312%);fill-opacity:1;" d="M 0 222.222656 L 1000 222.222656 L 1000 388.890625 L 0 388.890625 Z M 0 222.222656 "/>
<path style=" stroke:none;fill-rule:evenodd;fill:rgb(0%,20.783997%,50.195312%);fill-opacity:1;" d="M 277.777344 0 L 444.445312 0 L 444.445312 611.109375 L 277.777344 611.109375 Z M 277.777344 0 "/>
</g>
</svg>
